src/status/symbolic/network-wireless-hotspot-symbolic.svg

<svg width="16" height="16" version="1.1" xmlns="http://www.w3.org/2000/svg">
 <path d="m3.5 3c-1.939 0-3.5 1.561-3.5 3.5 0 1.7781 1.3123 3.2367 3.0254 3.4668-0.015974-0.15341-0.025391-0.30933-0.025391-0.4668 0-0.18435 0.013356-0.36622 0.035156-0.54492-1.1614-0.21669-2.0352-1.229-2.0352-2.4551 0-1.385 1.115-2.5 2.5-2.5h5c1.385 0 2.5 1.115 2.5 2.5s-1.115 2.5-2.5 2.5h-2.418c-0.052538 0.15565-0.082031 0.32313-0.082031 0.5 0 0.17687 0.029493 0.34435 0.082031 0.5h2.418c1.939 0 3.5-1.561 3.5-3.5s-1.561-3.5-3.5-3.5h-5z" fill="#363636" stroke-linecap="square" stroke-width="2" style="paint-order:fill markers stroke"/>
 <path d="m12.5 13c1.939 0 3.5-1.561 3.5-3.5 0-1.7781-1.3123-3.2367-3.0254-3.4668 0.01597 0.15341 0.02539 0.30933 0.02539 0.4668 0 0.18435-0.01336 0.36622-0.03516 0.54492 1.1614 0.21669 2.0352 1.229 2.0352 2.4551 0 1.385-1.115 2.5-2.5 2.5h-5c-1.385 0-2.5-1.115-2.5-2.5s1.115-2.5 2.5-2.5h2.418c0.05254-0.15565 0.08203-0.32313 0.08203-0.5s-0.02949-0.34435-0.08203-0.5h-2.418c-1.939 0-3.5 1.561-3.5 3.5s1.561 3.5 3.5 3.5z" fill="#363636" stroke-linecap="square" stroke-width="2" style="paint-order:fill markers stroke"/>
</svg>

<svg xmlns="http://www.w3.org/2000/svg" width="16" height="16">
    <path fill="#050505" fill-opacity=".7" d="M3.5 3A3.492 3.492 0 0 0 0 6.5a3.49 3.49 0 0 0 3.025 3.467A4.508 4.508 0 0 1 3 9.5c0-.184.013-.366.035-.545A2.492 2.492 0 0 1 1 6.5C1 5.115 2.115 4 3.5 4h5C9.885 4 11 5.115 11 6.5S9.885 9 8.5 9H6.082a1.558 1.558 0 0 0 0 1H8.5c1.939 0 3.5-1.561 3.5-3.5S10.439 3 8.5 3h-5z" style="paint-order:fill markers stroke"/>
    <path fill="#050505" fill-opacity=".7" d="M12.5 13c1.939 0 3.5-1.561 3.5-3.5a3.49 3.49 0 0 0-3.025-3.467 4.498 4.498 0 0 1-.01 1.012A2.492 2.492 0 0 1 15 9.5c0 1.385-1.115 2.5-2.5 2.5h-5C6.115 12 5 10.885 5 9.5S6.115 7 7.5 7h2.418a1.558 1.558 0 0 0 0-1H7.5C5.561 6 4 7.561 4 9.5S5.561 13 7.5 13z" style="paint-order:fill markers stroke"/>
</svg>
